assets/logos/gitkraken.svg

<?xml version="1.0" encoding="UTF-8"?>
<svg width="340px" height="340px" viewBox="0 0 340 340" version="1.1" xmlns="http://www.w3.org/2000/svg" xmlns:xlink="http://www.w3.org/1999/xlink">
    <!-- Generator: Sketch 40.3 (33839) - http://www.bohemiancoding.com/sketch -->
    <title>Untitled 2</title>
    <desc>Created with Sketch.</desc>
    <defs>
        <circle id="path-1" cx="170" cy="170" r="157"></circle>
        <mask id="mask-2" maskContentUnits="userSpaceOnUse" maskUnits="objectBoundingBox" x="-13" y="-13" width="340" height="340">
            <rect x="0" y="0" width="340" height="340" fill="white"></rect>
            <use xlink:href="#path-1" fill="black"></use>
        </mask>
    </defs>
    <g id="Page-1" stroke="none" stroke-width="1" fill="none" fill-rule="evenodd">
        <g id="Oval">
            <use fill="#141422" fill-rule="evenodd" xlink:href="#path-1"></use>
            <use stroke="#D0D0D2" mask="url(#mask-2)" stroke-width="26" xlink:href="#path-1"></use>
        </g>
        <path d="M290.775947,117.434484 C289.721582,114.693133 286.558484,113.427894 284.028007,114.48226 C282.130148,115.325753 280.864909,117.223611 280.864909,119.121469 C280.864909,119.754089 280.864909,120.386708 281.286656,120.808454 C286.136738,133.671716 288.878089,147.589344 288.878089,162.350464 C288.878089,222.027565 244.383855,271.582754 186.604613,278.963314 L186.604613,223.925423 C190.189456,223.292804 193.563427,222.238438 196.937397,221.184072 L196.937397,267.365291 C243.962109,255.978141 279.177924,213.381766 279.177924,162.350464 C279.177924,121.651947 256.614498,86.0143851 223.29654,67.6684214 C220.766063,66.1923093 217.602965,67.2466751 216.337727,69.988026 C215.91598,70.6206454 215.91598,71.464138 215.91598,72.3076306 C215.91598,74.2054889 216.970346,75.8924741 218.446458,76.7359667 C248.601318,93.3949452 269.056013,125.658537 269.056013,162.561337 C269.056013,204.103347 243.329489,239.530036 206.848435,253.86941 L206.848435,212.960019 C213.174629,211.062161 217.813839,205.157713 217.813839,197.988026 C217.813839,192.083578 214.861614,187.233495 210.011532,184.492145 C213.596376,149.065456 229.833608,158.554748 229.833608,147.167598 L229.833608,140.63053 C229.833608,123.760678 190.822076,68.7227871 172.476112,67.4575482 L169.102142,67.4575482 C150.756178,68.7227871 111.744646,123.760678 111.744646,140.63053 L111.744646,147.167598 C111.744646,158.343874 127.771005,149.065456 131.566722,184.492145 C126.927512,187.233495 123.975288,192.294451 123.975288,197.988026 C123.975288,204.94684 128.614497,210.851288 134.940692,212.960019 L134.940692,253.86941 C98.6705107,239.530036 72.7331137,204.103347 72.7331137,162.561337 C72.7331137,125.658537 93.1878089,93.3949452 123.342669,76.7359667 C125.662273,75.4707278 126.716639,72.5185037 125.4514,69.988026 C124.818781,68.0901677 122.920923,67.0358019 121.023064,67.0358019 C120.179572,67.0358019 119.336079,67.2466751 118.492587,67.6684214 C85.1746293,86.0143851 62.6112026,121.651947 62.6112026,162.350464 C62.6112026,213.381766 97.8270181,255.978141 145.273476,267.576164 L145.273476,221.394945 C148.647446,222.449311 152.021417,223.503677 155.60626,224.136296 L155.60626,279.174187 C97.8270181,271.582754 53.3327842,222.238438 53.3327842,162.350464 C53.3327842,147.800217 56.0741351,133.882589 60.9242175,120.808454 C61.9785832,118.277977 60.7133443,115.325753 58.1828666,114.271387 C57.5502471,114.060514 56.9176277,113.849641 56.2850082,113.849641 C54.1762768,113.849641 52.2784185,115.114879 51.4349259,117.223611 C45.952224,131.352112 43,146.534978 43,162.350464 C43,231.305983 97.4052718,287.39824 165.728171,290.139591 L165.728171,225.401535 C167.62603,225.612408 171,225.612408 171,225.612408 C171,225.612408 174.37397,225.612408 176.271829,225.401535 L176.271829,290.139591 C244.594728,287.39824 299,231.305983 299,162.350464 C298.789127,146.534978 296.047776,131.352112 290.775947,117.434484 L290.775947,117.434484 L290.775947,117.434484 Z M194.617792,190.396593 C196.515651,188.498734 199.046129,187.233495 201.998353,187.233495 C204.950577,187.233495 207.481054,188.498734 209.378913,190.396593 C211.276771,192.294451 212.54201,194.824929 212.54201,197.777153 C212.54201,200.729377 211.276771,203.259855 209.378913,205.157713 C207.481054,207.055571 204.950577,208.32081 201.998353,208.32081 C199.046129,208.32081 196.515651,207.055571 194.617792,205.157713 C192.719934,203.259855 191.454695,200.729377 191.454695,197.777153 C191.454695,194.824929 192.719934,192.294451 194.617792,190.396593 L194.617792,190.396593 L194.617792,190.396593 Z M147.382208,205.157713 C145.484349,207.055571 142.953871,208.32081 140.001647,208.32081 C137.049423,208.32081 134.518946,207.055571 132.621087,205.157713 C130.512356,203.259855 129.45799,200.729377 129.45799,197.777153 C129.45799,194.824929 130.723229,192.294451 132.621087,190.396593 C134.518946,188.498734 137.049423,187.233495 140.001647,187.233495 C142.953871,187.233495 145.484349,188.498734 147.382208,190.396593 C149.280066,192.294451 150.545305,194.824929 150.545305,197.777153 C150.334432,200.729377 149.280066,203.259855 147.382208,205.157713 L147.382208,205.157713 L147.382208,205.157713 Z" id="Shape" fill="#149287"></path>
    </g>
</svg>

<svg width="340" height="340" viewBox="0 0 340 340" xmlns="http://www.w3.org/2000/svg" xmlns:xlink="http://www.w3.org/1999/xlink"><title>Untitled 2</title><defs><circle id="a" cx="170" cy="170" r="157"/><mask id="b" x="-13" y="-13" width="340" height="340"><path fill="#fff" d="M0 0h340v340H0z"/><use xlink:href="#a"/></mask></defs><g fill="none" fill-rule="evenodd"><use fill="#141422" xlink:href="#a"/><use stroke="#D0D0D2" mask="url(#b)" stroke-width="26" xlink:href="#a"/><path d="M290.776 117.434c-1.054-2.74-4.218-4.006-6.748-2.952-1.898.844-3.163 2.742-3.163 4.64 0 .632 0 1.265.422 1.686 4.85 12.864 7.591 26.781 7.591 41.542 0 59.678-44.494 109.233-102.273 116.613v-55.038c3.584-.632 6.958-1.687 10.332-2.74v46.18c47.025-11.387 82.24-53.983 82.24-105.015 0-40.698-22.563-76.336-55.88-94.682-2.53-1.476-5.694-.421-6.96 2.32-.421.633-.421 1.476-.421 2.32 0 1.897 1.054 3.584 2.53 4.428 30.155 16.659 50.61 48.923 50.61 85.825 0 41.542-25.727 76.969-62.208 91.308V212.96c6.327-1.898 10.966-7.802 10.966-14.972 0-5.904-2.952-10.755-7.802-13.496 3.584-35.427 19.822-25.937 19.822-37.324v-6.537c0-16.87-39.012-71.908-57.358-73.173h-3.374c-18.346 1.265-57.357 56.303-57.357 73.173v6.537c0 11.176 16.026 1.897 19.822 37.324-4.64 2.741-7.592 7.802-7.592 13.496 0 6.959 4.64 12.863 10.966 14.972v40.91c-36.27-14.34-62.208-49.767-62.208-91.309 0-36.902 20.455-69.166 50.61-85.825 2.32-1.265 3.374-4.217 2.108-6.748-.632-1.898-2.53-2.952-4.428-2.952-.843 0-1.687.21-2.53.632C85.175 86.014 62.61 121.652 62.61 162.35c0 51.032 35.216 93.628 82.662 105.226v-46.181c3.374 1.054 6.748 2.109 10.333 2.741v55.038C97.827 271.583 53.333 222.238 53.333 162.35c0-14.55 2.741-28.467 7.591-41.542 1.055-2.53-.21-5.482-2.741-6.537-.633-.21-1.265-.421-1.898-.421-2.109 0-4.007 1.265-4.85 3.374C45.952 131.352 43 146.535 43 162.35c0 68.956 54.405 125.048 122.728 127.79v-64.738c1.898.21 5.272.21 5.272.21s3.374 0 5.272-.21v64.738C244.595 287.398 299 231.306 299 162.35c-.21-15.815-2.952-30.998-8.224-44.916zm-96.158 72.963c1.898-1.898 4.428-3.164 7.38-3.164 2.953 0 5.483 1.266 7.38 3.164 1.899 1.897 3.164 4.428 3.164 7.38s-1.265 5.483-3.163 7.38c-1.898 1.899-4.428 3.164-7.38 3.164-2.953 0-5.483-1.265-7.381-3.163-1.898-1.898-3.163-4.429-3.163-7.38 0-2.953 1.265-5.484 3.163-7.381zm-47.236 14.76c-1.898 1.899-4.428 3.164-7.38 3.164-2.953 0-5.483-1.265-7.38-3.163-2.11-1.898-3.164-4.429-3.164-7.38 0-2.953 1.265-5.484 3.163-7.381 1.898-1.898 4.428-3.164 7.38-3.164 2.953 0 5.483 1.266 7.381 3.164 1.898 1.897 3.163 4.428 3.163 7.38-.21 2.952-1.265 5.483-3.163 7.38z" fill="#149287"/></g></svg>
